X:244
T:Nickelodeon
T:Music, Music, Music
Z:Jack Campin, http://www.campin.me.uk/
F:Jack Campin's Nine-Note Tunebook
% last edit 21-06-2014
M:2/4
L:1/8
Q:1/4=120
K:F
cd cd |c<d c2|AB AB |A<B A2|
GA GA |G<A GA|GF GF |G F3 :|
d2 G2-|GA  BG|c2 F2-|FG  AF|
EF GA |B<c d2|cd cA |B<c B2|
cd cd |c<d c2|AB AB |A<B A2|
GA GA |G<A GA|GF GF |G F3 |]

